X: 1
T: Mississippi Sawyer
M: 4/4
L: 1/8
R: reel
K: Dmaj
fg |: &quot;D&quot; a2 af a2 af | af a2 b2 a2 | &quot;G&quot; g2 ef g2 ef | gf g2 a2 g2 |
&quot;D&quot; f2 fg fe dc | de fg a2 ef | &quot;A&quot; gf ed cA Bc |1 &quot;D&quot; d2 f2 d2 fg :|2 d2 de d2 fe ||
|: &quot;D&quot; d2 fe d2 fe | de fg a4 | &quot;A&quot; e2 c2 A2 c2 | AB cd ef ec |
&quot;D&quot; d2 fe d2 fe | de fg a2 ef | &quot;A&quot; gf ed cA Bc |1 &quot;D&quot; d2 f2 d2 fe :|2 &quot;D&quot; d2 f2 d2 ||
